packages/swarm-icons/src/icons/line/Calendar Plus Alt.svg

<svg xmlns="http://www.w3.org/2000/svg" width="24" height="24" viewBox="0 0 24 24">
  <path fill="#757575" d="M15.5,5 L8.5,5 L8.5,6 C8.5,6.27614237 8.27614237,6.5 8,6.5 C7.72385763,6.5 7.5,6.27614237 7.5,6 L7.5,5 L5,5 C3.8954305,5 3,5.8954305 3,7 L3,19 C3,20.1045695 3.8954305,21 5,21 L19,21 C20.1045695,21 21,20.1045695 21,19 L21,7 C21,5.8954305 20.1045695,5 19,5 L16.5,5 L16.5,6 C16.5,6.27614237 16.2761424,6.5 16,6.5 C15.7238576,6.5 15.5,6.27614237 15.5,6 L15.5,5 Z M16.5,4 L19,4 C20.6568542,4 22,5.34314575 22,7 L22,19 C22,20.6568542 20.6568542,22 19,22 L5,22 C3.34314575,22 2,20.6568542 2,19 L2,7 C2,5.34314575 3.34314575,4 5,4 L7.5,4 L7.5,3 C7.5,2.72385763 7.72385763,2.5 8,2.5 C8.27614237,2.5 8.5,2.72385763 8.5,3 L8.5,4 L15.5,4 L15.5,3 C15.5,2.72385763 15.7238576,2.5 16,2.5 C16.2761424,2.5 16.5,2.72385763 16.5,3 L16.5,4 Z M11.5,13 L11.5,9.5 C11.5,9.22385763 11.7238576,9 12,9 C12.2761424,9 12.5,9.22385763 12.5,9.5 L12.5,13 L16,13 C16.2761424,13 16.5,13.2238576 16.5,13.5 C16.5,13.7761424 16.2761424,14 16,14 L12.5,14 L12.5,17.5 C12.5,17.7761424 12.2761424,18 12,18 C11.7238576,18 11.5,17.7761424 11.5,17.5 L11.5,14 L8,14 C7.72385763,14 7.5,13.7761424 7.5,13.5 C7.5,13.2238576 7.72385763,13 8,13 L11.5,13 Z"/>
</svg>

<svg xmlns="http://www.w3.org/2000/svg" width="24" height="24"><path fill="#757575" d="M15.5 5h-7v1a.5.5 0 01-1 0V5H5a2 2 0 00-2 2v12a2 2 0 002 2h14a2 2 0 002-2V7a2 2 0 00-2-2h-2.5v1a.5.5 0 11-1 0V5zm1-1H19a3 3 0 013 3v12a3 3 0 01-3 3H5a3 3 0 01-3-3V7a3 3 0 013-3h2.5V3a.5.5 0 011 0v1h7V3a.5.5 0 111 0v1zm-5 9V9.5a.5.5 0 111 0V13H16a.5.5 0 110 1h-3.5v3.5a.5.5 0 11-1 0V14H8a.5.5 0 110-1h3.5z"/></svg>
